X:1
T:[ID 1-51a]
T:[ID 1-51a]
T:Bezeichnung standardisiert: Menuett Men:
T:Urheber unbekannt Datum in der hier transkribierten schriftlichen Quelle: vermutlich vor 1767
C:Urheber unbekannt
C:Datum in der hier transkribierten schriftlichen Quelle: vermutlich vor 1767
L:1/8
M:3/4
K:D
V:1 treble 
V:1
 f4 g2 | afgb a2 | b2 a2 g2 | f4 e2 | gfge f2 | c2 BA d2 | BAGFEg | e6 :: e4 f2 | gecA b2 | %10
 a2 g2 f2 | e2 dcBA | BABd c2 | d4 e2 | f2 d2 c2 | d6 :| %16

